**kern	**silbe	**kern	**silbe	**kern	**silbe	**harmony	**phrase	**leadinstrument	**rhyme	**timestamp	**harte
*ICvox	*	*ICvox	*	*ICvox	*	*M4/4	*	*	*	*	*M4/4
*VRlead	*	*VRharmonize	*	*VRharmonize	*	*	*	*	*	*	*
*Hstimme	*	*Nstimme	*	*Nstimme	*	*	*	*	*	*	*
*A:	*	*A:	*	*:	*	*A:	*	*	*	*	*A:
=1	=1	=1	=1	=1	=1	=1	=1	=1	=1	=1	=1
*M4/4	*	*M4/4	*	*M4/4	*	*	*	*	*	*	*
*clefF4	*	*clefC3	*	*clefG2	*	*	*	*	*	*	*
r;	.	r;	.	r;	.	1r;	.	r	.	0	N.C.
=2	=2	=2	=2	=2	=2	=2	=2	=2	=2	=2	=2
*>Letter>A	*>Letter>A	*>Letter>A	*>Letter>A	*>Letter>A	*>Letter>A	*>Letter>A	*>Letter>A	*>Letter>A	*>Letter>A	*>Letter>A	*>Letter>A
*>Label>Intro	*>Label>Intro	*>Label>Intro	*>Label>Intro	*>Label>Intro	*>Label>Intro	*>Label>Intro	*>Label>Intro	*>Label>Intro	*>Label>Intro	*>Label>Intro	*>Label>Intro
1r	.	1r	.	1r	.	1AM	newline	woodwinds	.	0.418	A:maj/5
=3	=3	=3	=3	=3	=3	=3	=3	=3	=3	=3	=3
1r	.	1r	.	1r	.	2C#mm	.	woodwinds	.	3.243	C#:min7/b3
.	.	.	.	.	.	2Cd	.	woodwinds	.	4.656	C:dim
=4	=4	=4	=4	=4	=4	=4	=4	=4	=4	=4	=4
1r	.	1r	.	1r	.	2AM	newline	woodwinds	.	6.069	A:maj(9)/5
.	.	.	.	.	.	2AM	.	woodwinds	.	7.377	A:maj/5
=5	=5	=5	=5	=5	=5	=5	=5	=5	=5	=5	=5
*M3/4	*	*M3/4	*	*M3/4	*	*	*	*	*	*	*
1r	.	1r	.	1r	.	4C#mm	.	woodwinds	.	8.684	C#:min7/b3
.	.	.	.	.	.	4Cd	.	woodwinds	.	9.338	C:dim
.	.	.	.	.	.	4Bmm	.	woodwinds	.	9.992	B:min7/4
=6	=6	=6	=6	=6	=6	=6	=6	=6	=6	=6	=6
*>Letter>B	*>Letter>B	*>Letter>B	*>Letter>B	*>Letter>B	*>Letter>B	*>Letter>B	*>Letter>B	*>Letter>B	*>Letter>B	*>Letter>B	*>Letter>B
*>Label>Theme	*>Label>Theme	*>Label>Theme	*>Label>Theme	*>Label>Theme	*>Label>Theme	*>Label>Theme	*>Label>Theme	*>Label>Theme	*>Label>Theme	*>Label>Theme	*>Label>Theme
*M4/4	*	*M4/4	*	*M4/4	*	*	*	*	*	*	*
1C#	I'm	1r	.	1r	.	1AM	newline	voice	.	10.646	A:maj
=7	=7	=7	=7	=7	=7	=7	=7	=7	=7	=7	=7
12D	drea-	1r	.	1r	.	4DM	.	voice	.	13.129	D:maj/5
12F#	_	.	.	.	.	.	.	.	.	.	.
12D	_	.	.	.	.	.	.	.	.	.	.
4C#	-ming	.	.	.	.	4AM	.	voice	.	13.749	A:maj
4r	.	.	.	.	.	4G#M	.	voice	.	14.37	G#:maj/b2
16C	of	.	.	.	.	4AM	.	voice	.	14.99	A:maj
16C#	a	.	.	.	.	.	.	.	.	.	.
[8D	white	.	.	.	.	.	.	.	.	.	.
=8	=8	=8	=8	=8	=8	=8	=8	=8	=8	=8	=8
1D]	_	1r	.	1r	.	1Bm	.	voice	.	15.611	B:min
=9	=9	=9	=9	=9	=9	=9	=9	=9	=9	=9	=9
8D#	Christ-	1r	.	1r	.	2D#d	.	voice	.	18.094	D#:dim/b2
[8E	-mas	.	.	.	.	.	.	.	.	.	.
2E]	_	.	.	.	.	.	.	.	.	.	.
.	.	.	.	.	.	2EMm	.	voice	.	19.335	E:7
4r	.	.	.	.	.	.	.	.	.	.	.
=10	=10	=10	=10	=10	=10	=10	=10	=10	=10	=10	=10
4r	.	1r	.	1r	.	1Bmm	newline	voice	.	20.576	B:min7
16r	.	.	.	.	.	.	.	.	.	.	.
8F#	Just	.	.	.	.	.	.	.	.	.	.
[16G#	like	.	.	.	.	.	.	.	.	.	.
4G#]	_	.	.	.	.	.	.	.	.	.	.
8A	the	.	.	.	.	.	.	.	.	.	.
[8B	ones	.	.	.	.	.	.	.	.	.	.
=11	=11	=11	=11	=11	=11	=11	=11	=11	=11	=11	=11
2B_	_	1r	.	1r	.	2Bmm	.	voice	.	22.99	B:min7/b3
8B]	_	.	.	.	.	2EMm	.	voice	.	24.197	E:7
8A	I	.	.	.	.	.	.	.	.	.	.
[4G#	used	.	.	.	.	.	.	.	.	.	.
=12	=12	=12	=12	=12	=12	=12	=12	=12	=12	=12	=12
8G#]	_	1r	.	1r	.	2AM	.	voice	.	25.404	A:maj
8F#	to	.	.	.	.	.	.	.	.	.	.
2.E	know.	.	.	.	.	.	.	.	A	.	.
.	.	.	.	.	.	2EMm	.	voice	.	26.611	E:7
=13	=13	=13	=13	=13	=13	=13	=13	=13	=13	=13	=13
2r	.	1r	.	1r	.	4G#M	.	voice	.	27.818	G#:maj/b2
.	.	.	.	.	.	4AM	.	voice	.	28.422	A:maj
4r	.	.	.	.	.	4Bmm	.	voice	.	29.025	B:min7
8AA	Where	.	.	.	.	4EMm	.	voice	.	29.629	E:7
16BB	the	.	.	.	.	.	.	.	.	.	.
[16C#	tree	.	.	.	.	.	.	.	.	.	.
=14	=14	=14	=14	=14	=14	=14	=14	=14	=14	=14	=14
2C#]	_	1r	.	1r	.	1AM	newline	voice	.	30.232	A:maj
4C	tops	.	.	.	.	.	.	.	.	.	.
4r	.	.	.	.	.	.	.	.	.	.	.
=15	=15	=15	=15	=15	=15	=15	=15	=15	=15	=15	=15
12C#	glis-	1r	.	1r	.	2AMm	.	voice	(B	32.815	A:9
[6F#	-ten,	.	.	.	.	.	.	.	b)	.	.
2F#]	_	.	.	.	.	.	.	.	.	.	.
.	.	.	.	.	.	2AMm	.	voice	.	34.106	A:7(b9)
4r	.	.	.	.	.	.	.	.	.	.	.
=16	=16	=16	=16	=16	=16	=16	=16	=16	=16	=16	=16
8r	.	1r	.	1r	.	1DMM	.	voice	.	35.397	D:maj7
[8E	and	.	.	.	.	.	.	.	.	.	.
8E]	_	.	.	.	.	.	.	.	.	.	.
[8AA	chil-	.	.	.	.	.	.	.	.	.	.
8AA]	_	.	.	.	.	.	.	.	.	.	.
4.AA	-dren	.	.	.	.	.	.	.	.	.	.
=17	=17	=17	=17	=17	=17	=17	=17	=17	=17	=17	=17
12AA	lis-	1r	.	1r	.	1DMM	.	voice	(B	37.979	D:maj6(7)
[6E	-ten,	.	.	.	.	.	.	.	b)	.	.
2E]	_	.	.	.	.	.	.	.	.	.	.
8r	.	.	.	.	.	.	.	.	.	.	.
8D	to	.	.	.	.	.	.	.	.	.	.
=18	=18	=18	=18	=18	=18	=18	=18	=18	=18	=18	=18
1C#	hear	1r	.	1r	.	1F#m	newline	voice	.	40.561	F#:min
=19	=19	=19	=19	=19	=19	=19	=19	=19	=19	=19	=19
12D	sleigh	1r	.	1r	.	2F#mm	.	voice	.	43.052	F#:min7
12F#	_	.	.	.	.	.	.	.	.	.	.
12D	_	.	.	.	.	.	.	.	.	.	.
2C#	bells	.	.	.	.	.	.	.	.	.	.
.	.	.	.	.	.	2BMm	.	voice	.	44.297	B:7
12BB	in	.	.	.	.	.	.	.	.	.	.
6AA	the	.	.	.	.	.	.	.	.	.	.
=20	=20	=20	=20	=20	=20	=20	=20	=20	=20	=20	=20
1BB	snow.	1r	.	1r	.	1EM	.	voice	A	45.543	E:sus4(b7)
=21	=21	=21	=21	=21	=21	=21	=21	=21	=21	=21	=21
2r	.	1r	.	1r	.	1EMm	.	voice	.	48.033	E:7
4r	.	.	.	.	.	.	.	.	.	.	.
8r	.	.	.	.	.	.	.	.	.	.	.
16r	.	.	.	.	.	.	.	.	.	.	.
[16C#	I'm	.	.	.	.	.	.	.	.	.	.
=22	=22	=22	=22	=22	=22	=22	=22	=22	=22	=22	=22
*>Letter>B2	*>Letter>B2	*>Letter>B2	*>Letter>B2	*>Letter>B2	*>Letter>B2	*>Letter>B2	*>Letter>B2	*>Letter>B2	*>Letter>B2	*>Letter>B2	*>Letter>B2
*>Label>Theme	*>Label>Theme	*>Label>Theme	*>Label>Theme	*>Label>Theme	*>Label>Theme	*>Label>Theme	*>Label>Theme	*>Label>Theme	*>Label>Theme	*>Label>Theme	*>Label>Theme
1C#]	_	1r	.	1r	.	1AMm	newline	voice	.	50.524	A:7
=23	=23	=23	=23	=23	=23	=23	=23	=23	=23	=23	=23
12D	drea-	1r	.	1r	.	4DM	.	voice	.	53.002	D:maj/5
12E	_	.	.	.	.	.	.	.	.	.	.
12D	_	.	.	.	.	.	.	.	.	.	.
4C#	-ming	.	.	.	.	4AM	.	voice	.	53.622	A:maj
4r	.	.	.	.	.	4G#M	.	voice	.	54.241	G#:maj/b2
12r	.	.	.	.	.	4AM	.	voice	.	54.861	A:maj
12FF#	of	.	.	.	.	.	.	.	.	.	.
12~BB	a	.	.	.	.	.	.	.	.	.	.
=24	=24	=24	=24	=24	=24	=24	=24	=24	=24	=24	=24
1D	white	1r	.	1r	.	1Bm	.	voice	.	55.481	B:min
=25	=25	=25	=25	=25	=25	=25	=25	=25	=25	=25	=25
8D#	Christ-	1r	.	1r	.	2D#d	.	voice	.	57.959	D#:dim/b2
[8E	-mas	.	.	.	.	.	.	.	.	.	.
2.E]	_	.	.	.	.	.	.	.	.	.	.
.	.	.	.	.	.	2EMm	.	voice	.	59.198	E:7
=26	=26	=26	=26	=26	=26	=26	=26	=26	=26	=26	=26
4r	.	1r	.	1r	.	1Bmm	newline	voice	.	60.438	B:min7
8r	.	.	.	.	.	.	.	.	.	.	.
8F#	with	.	.	.	.	.	.	.	.	.	.
8G#	ev-	.	.	.	.	.	.	.	.	.	.
[8A	-'ry	.	.	.	.	.	.	.	.	.	.
4A]	_	.	.	.	.	.	.	.	.	.	.
=27	=27	=27	=27	=27	=27	=27	=27	=27	=27	=27	=27
4B	Christ-	1r	.	1r	.	2Bmm	.	voice	.	62.937	B:min7/b3
4A	-mas	.	.	.	.	.	.	.	.	.	.
2G#	card	.	.	.	.	2EMm	.	voice	.	64.187	E:7
=28	=28	=28	=28	=28	=28	=28	=28	=28	=28	=28	=28
8FF#	I	1r	.	1r	.	2AM	.	voice	.	65.436	A:maj
[8E	write	.	.	.	.	.	.	.	C	.	.
2.E]	_	.	.	.	.	.	.	.	.	.	.
.	.	.	.	.	.	2G#M	.	voice	.	66.686	G#:maj/b2
=29	=29	=29	=29	=29	=29	=29	=29	=29	=29	=29	=29
2r	.	1r	.	1r	.	2AM	.	voice	.	67.935	A:maj
4AA	May	.	.	.	.	4Bmm	.	voice	.	69.185	B:min7
8BB	your	.	.	.	.	4EMm	.	voice	.	69.81	E:7
[8C#	days	.	.	.	.	.	.	.	.	.	.
=30	=30	=30	=30	=30	=30	=30	=30	=30	=30	=30	=30
2C#]	_	1r	.	1r	.	1AM	newline	voice	.	70.435	A:maj
4r	.	.	.	.	.	.	.	.	.	.	.
8r	.	.	.	.	.	.	.	.	.	.	.
8FF#	be	.	.	.	.	.	.	.	.	.	.
=31	=31	=31	=31	=31	=31	=31	=31	=31	=31	=31	=31
8C#	mer-	1r	.	1r	.	2AMm	.	voice	.	72.997	A:9
[8F#	-ry	.	.	.	.	.	.	.	.	.	.
2F#]	_	.	.	.	.	.	.	.	.	.	.
.	.	.	.	.	.	2AMm	.	voice	.	74.278	A:7(b9)
4E	and	.	.	.	.	.	.	.	.	.	.
=32	=32	=32	=32	=32	=32	=32	=32	=32	=32	=32	=32
[1A	bright,	1r	.	1r	.	1DMM	.	voice	C	75.559	D:maj7
=33	=33	=33	=33	=33	=33	=33	=33	=33	=33	=33	=33
4A]	_	1r	.	1r	.	1Dm	.	voice	.	78.121	D:min
4r	.	.	.	.	.	.	.	.	.	.	.
4.AA	and	.	.	.	.	.	.	.	.	.	.
8BB	may	.	.	.	.	.	.	.	.	.	.
=34	=34	=34	=34	=34	=34	=34	=34	=34	=34	=34	=34
2.C#	all	1r	.	1r	.	2AM	newline	voice	.	80.684	A:maj
.	.	.	.	.	.	2AMm	.	voice	.	81.69	A:7
4C#	your	.	.	.	.	.	.	.	.	.	.
=35	=35	=35	=35	=35	=35	=35	=35	=35	=35	=35	=35
4.F#	Christ-	1r	.	1r	.	2DM	.	voice	.	82.696	D:maj
8GG#	-ma-	.	.	.	.	.	.	.	.	.	.
4.GG#	-ses	.	.	.	.	2EMm	.	voice	.	83.703	E:7(b9)
8GG#	be	.	.	.	.	.	.	.	.	.	.
=36	=36	=36	=36	=36	=36	=36	=36	=36	=36	=36	=36
1AA	white.	1r	.	1r	.	2AM	.	voice	C	84.709	A:maj
.	.	.	.	.	.	2C#mm	.	voice	.	85.715	C#:min7
=37	=37	=37	=37	=37	=37	=37	=37	=37	=37	=37	=37
1r	.	1r	.	1r	.	2F#mm	.	voice	.	86.722	F#:min7
.	.	.	.	.	.	4EMm	.	voice	.	88.734	E:7/5
.	.	.	.	.	.	4B-M	.	voice	.	89.741	B-:maj
=38	=38	=38	=38	=38	=38	=38	=38	=38	=38	=38	=38
*>Letter>B3	*>Letter>B3	*>Letter>B3	*>Letter>B3	*>Letter>B3	*>Letter>B3	*>Letter>B3	*>Letter>B3	*>Letter>B3	*>Letter>B3	*>Letter>B3	*>Letter>B3
*>Label>Theme	*>Label>Theme	*>Label>Theme	*>Label>Theme	*>Label>Theme	*>Label>Theme	*>Label>Theme	*>Label>Theme	*>Label>Theme	*>Label>Theme	*>Label>Theme	*>Label>Theme
1r	.	1AA 1E 1c#	I'm	1e 1a 1cc#	_	1AM	newline	choir	.	90.747	A:maj
=39	=39	=39	=39	=39	=39	=39	=39	=39	=39	=39	=39
1r	.	4AA 4F# 4d	drea-	4f# 4a 4dd	_	4DM	.	choir	.	93.229	D:maj/5
.	.	4AA 4E 4c#	-ming	4e 4a 4cc#	_	4AM	.	choir	.	93.85	A:maj
.	.	4AA 4D# 4c	of	4d# 4a 4cc	_	4G#M	.	choir	.	94.47	G#:maj/b2
.	.	4AA 4E 4c#	a	4e 4a 4cc#	_	4AM	.	choir	.	95.091	A:maj
=40	=40	=40	=40	=40	=40	=40	=40	=40	=40	=40	=40
1r	.	1BB 1F# 1A 1d	white	1f# 1a 1dd	_	1Bmm	.	choir	.	95.711	B:min7
=41	=41	=41	=41	=41	=41	=41	=41	=41	=41	=41	=41
1r	.	4EE 4F## 4c# 4d#	Christ-	4g 4a# 4dd#	_	2D#d	.	choir	.	98.193	D#:dim/b2
.	.	4EE 4G# 4d 4e	-mas,	4g# 4b 4ee	_	.	.	.	.	.	.
.	.	2r	.	2r	.	2EMm	.	choir	.	99.434	E:7
=42	=42	=42	=42	=42	=42	=42	=42	=42	=42	=42	=42
1r	.	4r	.	1r	.	1Bmm	newline	choir	.	100.675	B:min7
.	.	4F#	just	.	.	.	.	.	.	.	.
.	.	4G#	like	.	.	.	.	.	.	.	.
.	.	8A	the	.	.	.	.	.	.	.	.
.	.	[8B	ones	.	.	.	.	.	.	.	.
=43	=43	=43	=43	=43	=43	=43	=43	=43	=43	=43	=43
1r	.	4B]	_	1r	.	2DM	.	choir	.	103.151	D:maj
.	.	4A	I	.	.	.	.	.	.	.	.
.	.	4.G#	used	.	.	2EMm	.	choir	.	104.389	E:7
.	.	8F#	to	.	.	.	.	.	.	.	.
=44	=44	=44	=44	=44	=44	=44	=44	=44	=44	=44	=44
1r	.	1E	know.	1r	.	1AM	.	choir	A	105.627	A:maj
=45	=45	=45	=45	=45	=45	=45	=45	=45	=45	=45	=45
1r	.	2r	.	1r	.	4G#M	.	choir	.	108.103	G#:maj/b2
.	.	.	.	.	.	2.AM	.	choir	.	108.722	A:maj
.	.	4A	Where	.	.	.	.	.	.	.	.
.	.	4B	the	.	.	.	.	.	.	.	.
=46	=46	=46	=46	=46	=46	=46	=46	=46	=46	=46	=46
1r	.	2AA 2E 2A 2c#	tree-	1r	.	2AM	newline	choir	.	110.579	A:maj
.	.	2AA 2E 2G# 2B 2c#	-tops	.	.	2AMm	.	choir	.	111.836	A:7
=47	=47	=47	=47	=47	=47	=47	=47	=47	=47	=47	=47
1r	.	4AA 4E 4G 4c#	glis-	2r	.	1AMm	.	choir	(B	113.093	A:7
.	.	2AA 2E 2G	-ten,	.	.	.	.	.	b)	.	.
.	.	.	.	4r	.	.	.	.	.	.	.
.	.	4E	and	4e	_	.	.	.	.	.	.
=48	=48	=48	=48	=48	=48	=48	=48	=48	=48	=48	=48
1r	.	2AA 2D 2F# 2A	chil-	2d 2f# 2a	_	1DM	.	choir	.	115.607	D:maj
.	.	2AA 2D 2F# 2A	-dren	2d 2f# 2a	_	.	.	.	.	.	.
=49	=49	=49	=49	=49	=49	=49	=49	=49	=49	=49	=49
1r	.	4AA 4F 4A 4B	lis-	4d 4f 4a	_	1DMM	.	choir	(B	118.121	D:maj6(7)
.	.	4AA 4F 4A 4B	-ten,	4f 4b 4ee	_	.	.	.	b)	.	.
.	.	4r	.	2r	.	.	.	.	.	.	.
.	.	4AA 4F 4d	to	.	.	.	.	.	.	.	.
=50	=50	=50	=50	=50	=50	=50	=50	=50	=50	=50	=50
1r	.	1AA 1E 1c#	hear...	4r	.	1AM	newline	choir	.	120.635	A:maj
.	.	.	.	4e	To	.	.	.	.	.	.
.	.	.	.	4a	hear	.	.	.	.	.	.
.	.	.	.	4cc#	those	.	.	.	.	.	.
=51	=51	=51	=51	=51	=51	=51	=51	=51	=51	=51	=51
1r	.	1r	.	4f# 4b 4dd	sleigh	4AM	.	choir	.	123.087	A:sus4
.	.	.	.	4e 4a 4cc#	bells	4AM	.	choir	.	123.7	A:maj
.	.	.	.	4d# 4g# 4b	in	2BMm	.	choir	.	124.313	B:7
.	.	.	.	4d# 4f# 4a	the	.	.	.	.	.	.
=52	=52	=52	=52	=52	=52	=52	=52	=52	=52	=52	=52
1r	.	1r	.	[1d [1g# [1b	snow	1EMm	.	choir	A	125.539	E:7
=53	=53	=53	=53	=53	=53	=53	=53	=53	=53	=53	=53
1r	.	1r	.	2.d] 2.g#] 2.b]	_	1EMm	.	choir	.	127.991	E:7
.	.	.	.	4r	.	.	.	.	.	.	.
=54	=54	=54	=54	=54	=54	=54	=54	=54	=54	=54	=54
*>Letter>B4	*>Letter>B4	*>Letter>B4	*>Letter>B4	*>Letter>B4	*>Letter>B4	*>Letter>B4	*>Letter>B4	*>Letter>B4	*>Letter>B4	*>Letter>B4	*>Letter>B4
*>Label>Theme	*>Label>Theme	*>Label>Theme	*>Label>Theme	*>Label>Theme	*>Label>Theme	*>Label>Theme	*>Label>Theme	*>Label>Theme	*>Label>Theme	*>Label>Theme	*>Label>Theme
1r	.	1r	.	1c#	I'm	1AM	newline	choir	.	130.443	A:maj
=55	=55	=55	=55	=55	=55	=55	=55	=55	=55	=55	=55
1r	.	1r	.	4d	drea-	4DM	.	choir	.	132.894	D:maj/5
.	.	.	.	4c#	-ming	4AM	.	choir	.	133.506	A:maj
.	.	.	.	4c	of	4G#M	.	choir	.	134.119	G#:maj/b2
.	.	.	.	4c#	a	4AM	.	choir	.	134.731	A:maj
=56	=56	=56	=56	=56	=56	=56	=56	=56	=56	=56	=56
1r	.	1r	.	1d	white	1Bmm	.	choir	.	135.344	B:min7
=57	=57	=57	=57	=57	=57	=57	=57	=57	=57	=57	=57
1r	.	1r	.	4d#	Christ-	2D#d	.	choir	.	137.795	D#:dim/b2
.	.	.	.	4e	-mas,	.	.	.	.	.	.
.	.	.	.	2r	.	2EMm	.	choir	.	139.02	E:7
=58	=58	=58	=58	=58	=58	=58	=58	=58	=58	=58	=58
1r	.	1r	.	4r	.	1Bmm	newline	choir	.	140.245	B:min7
.	.	.	.	4d 4f#	with	.	.	.	.	.	.
.	.	.	.	4e 4g#	ev-	.	.	.	.	.	.
.	.	.	.	4f# 4a	-'ry	.	.	.	.	.	.
=59	=59	=59	=59	=59	=59	=59	=59	=59	=59	=59	=59
1r	.	1r	.	4g# 4b	Christ-	2DM	.	choir	.	142.684	D:maj
.	.	.	.	4f# 4a	-mas	.	.	.	.	.	.
.	.	.	.	4e 4g#	card	2EMm	.	choir	.	143.904	E:7
.	.	.	.	4d 4f#	I	.	.	.	.	.	.
=60	=60	=60	=60	=60	=60	=60	=60	=60	=60	=60	=60
1r	.	1r	.	1c# 1e	write.	1AM	.	choir	C	145.123	A:maj
=61	=61	=61	=61	=61	=61	=61	=61	=61	=61	=61	=61
2r	.	1r	.	2r	.	4G#M	.	choir	.	147.562	G#:maj/b2
.	.	.	.	.	.	2.AM	.	choir	.	148.172	A:maj
4C#	May	.	.	4A	May	.	.	.	.	.	.
8D	your	.	.	4B	your	.	.	.	.	.	.
[8E	days	.	.	.	.	.	.	.	.	.	.
=62	=62	=62	=62	=62	=62	=62	=62	=62	=62	=62	=62
2E]	_	1r	.	2c#	days	2AM	newline	voice choir	.	150.001	A:maj
4r	.	.	.	4r	.	2AMm	.	voice choir	.	151.398	A:7
8A	be	.	.	4c#	be	.	.	.	.	.	.
8G#	_	.	.	.	.	.	.	.	.	.	.
=63	=63	=63	=63	=63	=63	=63	=63	=63	=63	=63	=63
4G	mer-	1r	.	4c#	mer-	1AMm	.	voice choir	.	152.795	A:7
4A	-ry,	.	.	4f#	-ry	.	.	.	.	.	.
4r	.	.	.	4r	.	.	.	.	.	.	.
12r	.	.	.	4e	and	.	.	.	.	.	.
[12G	and	.	.	.	.	.	.	.	.	.	.
12G]	_	.	.	.	.	.	.	.	.	.	.
=64	=64	=64	=64	=64	=64	=64	=64	=64	=64	=64	=64
[2F#	bright,	1r	.	[1a	bright	1DM	.	voice choir	C	155.59	D:maj
8F#]	_	.	.	.	.	.	.	.	.	.	.
8A	_	.	.	.	.	.	.	.	.	.	.
8F#	_	.	.	.	.	.	.	.	.	.	.
[8F	_	.	.	.	.	.	.	.	.	.	.
=65	=65	=65	=65	=65	=65	=65	=65	=65	=65	=65	=65
4F]	_	1r	.	4a]	.	1Dm	.	voice choir	.	158.384	D:min6(7)
4r	.	.	.	4r	.	.	.	.	.	.	.
4.AA	and	.	.	2r	.	.	.	.	.	.	.
8BB	may	.	.	.	.	.	.	.	.	.	.
=66	=66	=66	=66	=66	=66	=66	=66	=66	=66	=66	=66
2C#	all	1r	.	1r	.	1AM	newline	voice	.	161.178	A:maj
4r	.	.	.	.	.	.	.	.	.	.	.
8r	.	.	.	.	.	.	.	.	.	.	.
8C#	your	.	.	.	.	.	.	.	.	.	.
=67	=67	=67	=67	=67	=67	=67	=67	=67	=67	=67	=67
4.F#	Christ-	1r	.	1r	.	1EMm	.	voice	.	163.971	E:7
8GG#	-ma-	.	.	.	.	.	.	.	.	.	.
4.GG#	-ses	.	.	.	.	.	.	.	.	.	.
8GG#	be	.	.	.	.	.	.	.	.	.	.
=68	=68	=68	=68	=68	=68	=68	=68	=68	=68	=68	=68
[1AA	white.	1r	.	1r	.	1AM	.	voice	C	166.763	A:maj6
=69	=69	=69	=69	=69	=69	=69	=69	=69	=69	=69	=69
1AA]	_	1r	.	1r	.	1AM	.	voice	.	169.206	A:maj6
r;	.	r;	.	r;	.	1r;	.	r	.	179.676	N.C.
r;	.	r;	.	r;	.	1r;	.	r	.	181.979	N.C.
*-	*-	*-	*-	*-	*-	*-	*-	*-	*-	*-	*-
!!!BillboardChartDate: 1962/12/29
!!!BillboardPeak: 12
!!!BillboardWeeksOnChart: 13
!!!COC: Bing Crosby
!!!ENC: Nathaniel Condit-Schultz
!!!EST: Awating manual error checking and editing.
!!!OTL: White Christmas
!!!RDF**chordsym: original McGill chord annotation + (implied pitch class set, with bass pitch in first position)
!!!RDF**harmony: **recip + pitch class of root + harmonic quality
!!!RDF**leadinstrument: original McGill primary instrumentation annotation
!!!RDF**phrase: newline = linebreak in original McGill transcription
!!!RDF**timestamp: McGill audio timestamp in seconds
!!!RDT: 2017/01/12/
!!!SampleActualRank: 38
!!!SampleID#: 0241
!!!SampleTargetRank: 40
